X: 2
T: O'Donnell Abu
Z: ceolachan
S: https://thesession.org/tunes/7309#setting18831
R: barndance
M: 4/4
L: 1/8
K: Gmaj
G2 Bc d2 Bd | b2 ge d2 cB | A2 AB c2 BA | G2 Bc d4 |
G2 Bc d2 Bd | b2 ge d2 cB | A2 ag f2 ef | g2 g2 g4 ||
b2 ba ge d2 | g2 ge dB G2 | c2 ec B2 dB | A2 de d4 |
G2 Bc d2 Bd | b2 ge d2 cB | A2 ag f2 ef | g2 g>g g4 |]
